tools/download-figma-icons/icons/outlined-large/work-life-balance.svg

<svg width="65" height="65" viewBox="0 0 65 65" fill="none" xmlns="http://www.w3.org/2000/svg">
<path fill-rule="evenodd" clip-rule="evenodd" d="M45.1935 7.10955C43.9738 7.10955 42.8283 7.58585 41.966 8.45112C41.0977 9.31741 40.6214 10.462 40.6214 11.6827C40.6214 12.9024 41.0977 14.048 41.962 14.9092L51.287 24.7065L60.5826 14.9386C61.4763 14.048 61.9526 12.9024 61.9526 11.6827C61.9526 10.462 61.4763 9.31741 60.611 8.45519L60.607 8.45112C59.7458 7.58585 58.6002 7.10955 57.3805 7.10955C56.1608 7.10955 55.0152 7.58585 54.153 8.45112L53.3263 9.27781C52.201 10.4031 50.372 10.4031 49.2477 9.27781L48.4221 8.45316C47.5588 7.58585 46.4133 7.10955 45.1935 7.10955ZM51.287 28.4397C50.8696 28.4397 50.4705 28.2691 50.1831 27.9665L39.7836 17.0389C38.3689 15.6302 37.5747 13.7189 37.5747 11.6827C37.5747 9.64646 38.3689 7.73413 39.812 6.29708C41.245 4.85801 43.1573 4.06281 45.1935 4.06281C47.2298 4.06281 49.1411 4.85801 50.5781 6.30114L51.287 7.009L51.9969 6.29911C53.4319 4.85801 55.3443 4.06281 57.3805 4.06281C59.4157 4.06281 61.326 4.85699 62.7641 6.29911C64.2052 7.73616 64.9994 9.64748 64.9994 11.6827C64.9994 13.7189 64.2042 15.6302 62.762 17.0673L52.391 27.9665C52.1025 28.2691 51.7044 28.4397 51.287 28.4397ZM32.4985 32.5016C35.2985 32.5016 37.5764 34.7796 37.5764 37.5795C37.5764 40.3795 35.2985 42.6574 32.4985 42.6574C29.6986 42.6574 27.4206 40.3795 27.4206 37.5795C27.4206 34.7796 29.6986 32.5016 32.4985 32.5016ZM32.4985 45.7042C36.9782 45.7042 40.6231 42.0593 40.6231 37.5795C40.6231 33.0998 36.9782 29.4549 32.4985 29.4549C28.0188 29.4549 24.3739 33.0998 24.3739 37.5795C24.3739 42.0593 28.0188 45.7042 32.4985 45.7042ZM63.4737 35.5484H54.3335C53.6134 35.5484 52.9919 36.0531 52.8426 36.7579L49.3165 53.5089L43.1489 48.1121C43.1433 48.1071 43.1364 48.1039 43.1296 48.1007C43.1261 48.099 43.1226 48.0974 43.1192 48.0955C43.1172 48.0944 43.1152 48.0932 43.1133 48.0918C42.9894 47.9882 42.8513 47.9019 42.698 47.842L42.691 47.8397L42.6848 47.8378L42.6721 47.8343L42.672 47.8343C42.6634 47.8321 42.6548 47.8298 42.6462 47.8267C42.4888 47.7709 42.3222 47.7353 42.1465 47.7353H22.8505C22.6748 47.7353 22.5083 47.7709 22.3509 47.8267C22.3422 47.8298 22.3336 47.8321 22.3249 47.8343C22.3163 47.8366 22.3077 47.8389 22.2991 47.842C22.1457 47.9019 22.0076 47.9882 21.8837 48.0918C21.8787 48.0954 21.873 48.0981 21.8675 48.1007C21.8642 48.1022 21.861 48.1037 21.8579 48.1054C21.8544 48.1073 21.8511 48.1094 21.8481 48.1121L15.6805 53.5089L12.1544 36.7579C12.0052 36.0531 11.3836 35.5484 10.6636 35.5484H1.52337C0.682469 35.5484 0 36.2309 0 37.0718C0 37.9127 0.682469 38.5951 1.52337 38.5951H9.42762L13.235 56.6816C13.3467 57.2107 13.7306 57.6413 14.2435 57.8129C14.7564 57.9845 15.323 57.8698 15.7283 57.5143L21.3271 52.6162V63.4768C21.3271 64.3177 22.0096 65.0002 22.8505 65.0002C23.6914 65.0002 24.3739 64.3177 24.3739 63.4768V50.7821H40.6231V63.4768C40.6231 64.3177 41.3056 65.0002 42.1465 65.0002C42.9874 65.0002 43.6699 64.3177 43.6699 63.4768V52.6162L49.2688 57.5143C49.5501 57.7611 49.9076 57.8911 50.2711 57.8911C50.4326 57.8911 50.5951 57.8657 50.7535 57.8129C51.2664 57.6413 51.6503 57.2107 51.762 56.6816L55.5694 38.5951H63.4737C64.3146 38.5951 64.997 37.9127 64.997 37.0718C64.997 36.2309 64.3146 35.5484 63.4737 35.5484ZM46.7166 14.2212C48.372 14.2212 49.4252 12.969 49.5399 12.8258C49.8883 12.3912 49.8192 11.7615 49.3886 11.4081C48.956 11.0557 48.3192 11.1197 47.9627 11.5462L47.9626 11.5463C47.9517 11.5591 47.4121 12.1901 46.7166 12.1901C46.027 12.1901 45.4918 11.5716 45.4715 11.5472C45.1201 11.1166 44.4854 11.0496 44.0497 11.3979C43.612 11.7483 43.5419 12.3881 43.8933 12.8258C44.0081 12.969 45.0612 14.2212 46.7166 14.2212ZM47.1476 16.4371C47.6067 16.1132 48.2384 16.2259 48.5613 16.6809C48.5887 16.7205 49.7384 18.2834 51.2871 18.2834C52.8299 18.2834 53.9753 16.7318 54.0121 16.682L54.0129 16.6809C54.3369 16.2269 54.9716 16.1172 55.4276 16.4422C55.8836 16.7652 55.9933 17.3938 55.6724 17.8518C55.6023 17.9524 53.9124 20.3146 51.2871 20.3146C48.6619 20.3146 46.9719 17.9524 46.9008 17.8518C46.5789 17.3928 46.6896 16.7591 47.1476 16.4371ZM55.8568 14.2212C57.5122 14.2212 58.5654 12.969 58.6801 12.8258C59.0285 12.3912 58.9594 11.7615 58.5288 11.4081C58.0962 11.0557 57.4594 11.1197 57.1029 11.5462L57.1028 11.5463C57.0919 11.5591 56.5523 12.1901 55.8568 12.1901C55.1672 12.1901 54.632 11.5716 54.6117 11.5472C54.2603 11.1166 53.6256 11.0496 53.1899 11.3979C52.7522 11.7483 52.6821 12.3881 53.0335 12.8258C53.1483 12.969 54.2014 14.2212 55.8568 14.2212ZM21.3271 13.2057H3.04674V14.729V16.2534C3.04674 17.3736 3.95669 18.2835 5.07688 18.2835H10.6636V17.7758C10.6636 16.9349 11.346 16.2524 12.1869 16.2524C13.0278 16.2524 13.7103 16.9349 13.7103 17.7758V18.2835H19.297C20.4172 18.2835 21.3271 17.3736 21.3271 16.2534V14.729V13.2057ZM14.2181 10.1589H10.1558V7.11219H14.2181V10.1589ZM3.04674 20.9007V25.3926H21.3271V20.9007C20.7046 21.1739 20.0201 21.3303 19.297 21.3303H13.7103V21.8381C13.7103 22.679 13.0278 23.3614 12.1869 23.3614C11.346 23.3614 10.6636 22.679 10.6636 21.8381V21.3303H5.07688C4.35378 21.3303 3.66929 21.1739 3.04674 20.9007ZM22.8505 28.4393H1.52337C0.682469 28.4393 0 27.7569 0 26.916V16.2534V14.729V11.6823C0 10.8414 0.682469 10.1589 1.52337 10.1589H7.10905V5.58882C7.10905 4.74792 7.79152 4.06545 8.63242 4.06545H15.7415C16.5824 4.06545 17.2648 4.74792 17.2648 5.58882V10.1589H22.8505C23.6914 10.1589 24.3739 10.8414 24.3739 11.6823V14.729V16.2534V26.916C24.3739 27.7569 23.6914 28.4393 22.8505 28.4393Z" fill="black"/>
</svg>

<svg width="65" height="65" viewBox="0 0 65 65" fill="none" xmlns="http://www.w3.org/2000/svg"><path fill-rule="evenodd" clip-rule="evenodd" d="M45.194 7.11c-1.22 0-2.366.476-3.228 1.341a4.53 4.53 0 0 0-1.345 3.232c0 1.22.477 2.365 1.341 3.226l9.325 9.797 9.296-9.767c.893-.891 1.37-2.037 1.37-3.256a4.525 4.525 0 0 0-1.342-3.228l-.004-.004A4.521 4.521 0 0 0 57.38 7.11c-1.22 0-2.365.476-3.227 1.341l-.827.827a2.886 2.886 0 0 1-4.078 0l-.826-.825a4.523 4.523 0 0 0-3.228-1.343Zm6.093 21.33c-.417 0-.816-.17-1.104-.474l-10.4-10.927a7.522 7.522 0 0 1-2.208-5.356c0-2.037.794-3.949 2.237-5.386a7.546 7.546 0 0 1 5.382-2.234c2.036 0 3.947.795 5.384 2.238l.709.708.71-.71a7.547 7.547 0 0 1 5.383-2.236 7.55 7.55 0 0 1 5.384 2.236A7.552 7.552 0 0 1 65 11.683a7.55 7.55 0 0 1-2.237 5.384l-10.371 10.9a1.524 1.524 0 0 1-1.104.473Zm-18.788 4.062c2.8 0 5.077 2.278 5.077 5.078 0 2.8-2.278 5.077-5.078 5.077a5.084 5.084 0 0 1-5.077-5.077c0-2.8 2.278-5.078 5.078-5.078Zm0 13.202c4.48 0 8.124-3.645 8.124-8.124 0-4.48-3.645-8.125-8.124-8.125-4.48 0-8.125 3.645-8.125 8.125s3.645 8.124 8.125 8.124Zm30.975-10.156h-9.14c-.72 0-1.342.505-1.491 1.21l-3.527 16.75-6.167-5.396c-.006-.005-.013-.008-.02-.011l-.01-.005a1.498 1.498 0 0 0-.421-.254l-.007-.002-.006-.002-.013-.004a1.49 1.49 0 0 0-.525-.099H22.85a1.489 1.489 0 0 0-.526.1 1.497 1.497 0 0 0-.441.258.102.102 0 0 1-.017.008.142.142 0 0 0-.01.004.05.05 0 0 0-.009.007l-6.167 5.397-3.527-16.751a1.525 1.525 0 0 0-1.49-1.21h-9.14a1.524 1.524 0 0 0 0 3.047h7.904l3.807 18.087a1.522 1.522 0 0 0 2.493.833l5.6-4.899v10.86a1.524 1.524 0 0 0 3.046 0V50.783h16.25v12.695a1.524 1.524 0 0 0 3.046 0v-10.86l5.599 4.897a1.519 1.519 0 0 0 1.485.299 1.526 1.526 0 0 0 1.008-1.131l3.807-18.087h7.905a1.524 1.524 0 0 0 0-3.047ZM46.717 14.221c1.655 0 2.708-1.252 2.823-1.395a1.012 1.012 0 0 0-.151-1.418 1.02 1.02 0 0 0-1.426.138c-.011.013-.55.644-1.246.644-.69 0-1.225-.618-1.245-.643a1.016 1.016 0 0 0-1.579 1.279c.115.143 1.168 1.395 2.824 1.395Zm.43 2.216a1.016 1.016 0 0 1 1.414.244c.028.04 1.177 1.602 2.726 1.602 1.543 0 2.688-1.551 2.725-1.601v-.001a1.017 1.017 0 0 1 1.66 1.17c-.07.101-1.76 2.464-4.385 2.464s-4.315-2.363-4.386-2.463a1.017 1.017 0 0 1 .247-1.415Zm8.71-2.216c1.655 0 2.708-1.252 2.823-1.395a1.012 1.012 0 0 0-.151-1.418 1.02 1.02 0 0 0-1.426.138c-.011.013-.55.644-1.246.644-.69 0-1.225-.618-1.245-.643a1.016 1.016 0 0 0-1.579 1.279c.115.143 1.168 1.395 2.824 1.395Zm-34.53-1.015H3.047v3.047c0 1.12.91 2.03 2.03 2.03h5.587v-.507a1.524 1.524 0 0 1 3.046 0v.508h5.587c1.12 0 2.03-.91 2.03-2.03v-3.048Zm-7.109-3.047h-4.062V7.112h4.062v3.047ZM3.047 20.9v4.492h18.28V20.9a5.035 5.035 0 0 1-2.03.43H13.71v.507a1.524 1.524 0 0 1-3.046 0v-.508H5.077a5.035 5.035 0 0 1-2.03-.43Zm19.803 7.538H1.523A1.522 1.522 0 0 1 0 26.916V11.682c0-.84.682-1.523 1.523-1.523H7.11v-4.57c0-.841.683-1.524 1.523-1.524h7.11c.84 0 1.523.683 1.523 1.524v4.57h5.585c.841 0 1.524.682 1.524 1.523v15.234c0 .84-.683 1.523-1.523 1.523Z" fill="currentColor"/></svg>
